svgs/thin/user-tie-hair-long.svg

<svg xmlns="http://www.w3.org/2000/svg" viewBox="0 0 448 512"><!--! Font Awesome Pro 6.4.0 by @fontawesome - https://fontawesome.com License - https://fontawesome.com/license (Commercial License) Copyright 2023 Fonticons, Inc. --><path d="M336 144v-8-8c0-5.4-.4-10.8-1.1-16H312c-22.1 0-43-10.2-56.6-27.5L251 89.9C231.2 114 201.7 128 170.5 128L112 128v8 8c0 61.9 50.1 112 112 112s112-50.1 112-112zM292.4 39.3L265.8 71.8l1.4 1.8C277.8 87.7 294.4 96 312 96h19.4c-6.8-22.8-20.6-42.5-39-56.7zM113.1 112h57.4c26.4 0 51.4-11.8 68.1-32.3L279 30.4C262.7 21.2 244 16 224 16c-56.4 0-103.1 41.7-110.9 96zM390.4 244.8c-20.6-15.4-36.1-36.2-45.2-59.6C328.1 235.7 280.3 272 224 272s-104.1-36.3-121.2-86.8c-9.1 23.4-24.6 44.1-45.2 59.6L53.3 248c-3.4 2.5-5.3 6.5-5.3 10.7C48 266 54 272 61.3 272H120c4.4 0 8 3.6 8 8s-3.6 8-8 8H61.3C45.1 288 32 274.9 32 258.7c0-9.2 4.3-17.9 11.7-23.5L48 232c30.2-22.7 48-58.2 48-96v-8C96 57.3 153.3 0 224 0s128 57.3 128 128v8c0 37.8 17.8 73.3 48 96l4.3 3.2c7.4 5.5 11.7 14.2 11.7 23.5c0 16.2-13.1 29.3-29.3 29.3H328c-4.4 0-8-3.6-8-8s3.6-8 8-8h58.7c7.4 0 13.3-6 13.3-13.3c0-4.2-2-8.1-5.3-10.7l-4.3-3.2zM176.9 308.3c1.4-2.7 4.1-4.3 7.1-4.3h80c3 0 5.7 1.7 7.1 4.3s1.1 5.9-.6 8.3l-37.2 52.1 23.2 46.3 47.1-94.2c81.2 8.4 144.4 77 144.4 160.4c0 17-13.8 30.7-30.7 30.7H225.9h-3.8H30.7C13.8 512 0 498.2 0 481.3c0-83.4 63.3-152 144.4-160.4l47.1 94.2 23.2-46.3-37.2-52.1c-1.7-2.4-2-5.6-.6-8.3zM199.5 320L224 354.2 248.5 320H199.5zm10.1 167.2L135.3 338.3C67.5 350.6 16 409.9 16 481.3c0 8.1 6.6 14.7 14.7 14.7H214.1l-4.4-8.8zm-9.2-54.2l14.6 29.2L224 480l8.9-17.9 14.6-29.2L224 385.9l-23.5 47.1zM432 481.3c0-71.4-51.5-130.7-119.3-143L238.3 487.2l-4.4 8.8H417.3c8.1 0 14.7-6.6 14.7-14.7z"/></svg>

<svg xmlns="http://www.w3.org/2000/svg" viewBox="0 0 448 512"><!--! Font Awesome Pro 6.3.0 by @fontawesome - https://fontawesome.com License - https://fontawesome.com/license (Commercial License) Copyright 2023 Fonticons, Inc. --><path d="M390.4 244.8C369.8 229.4 354.3 208.6 345.2 185.2C328.1 235.7 280.3 272 224 272C167.7 272 119.9 235.7 102.8 185.2C93.7 208.6 78.2 229.4 57.6 244.8L53.33 248C49.98 250.5 48 254.5 48 258.7C48 266 53.97 272 61.33 272H120C124.4 272 128 275.6 128 280C128 284.4 124.4 288 120 288H61.33C45.13 288 32 274.9 32 258.7C32 249.4 36.35 240.7 43.73 235.2L48 232C78.22 209.3 96 173.8 96 136V128C96 57.31 153.3 0 224 0C294.7 0 352 57.31 352 128V136C352 173.8 369.8 209.3 400 232L404.3 235.2C411.7 240.7 416 249.4 416 258.7C416 274.9 402.9 288 386.7 288H328C323.6 288 320 284.4 320 280C320 275.6 323.6 272 328 272H386.7C394 272 400 266 400 258.7C400 254.5 398 250.5 394.7 248L390.4 244.8zM336 144V128C336 122.6 335.6 117.2 334.9 112H312C289.9 112 269 101.8 255.4 84.49L250.1 89.86C231.2 113.1 201.7 128 170.5 128H112V144C112 205.9 162.1 256 224 256C285.9 256 336 205.9 336 144L336 144zM265.8 71.75L267.2 73.6C277.8 87.7 294.4 96 312 96H331.4C324.6 73.21 310.7 53.46 292.4 39.29L265.8 71.75zM113.1 112H170.5C196.9 112 221.9 100.2 238.6 79.72L278.1 30.4C262.7 21.23 243.1 15.1 224 15.1C167.6 15.1 120.9 57.72 113.1 111.1V112zM176.9 308.3C178.3 305.7 181 304 184 304H264C266.1 304 269.7 305.7 271.1 308.3C272.5 311 272.3 314.2 270.5 316.6L233.3 368.7L256.5 415.1L303.6 320.9C384.7 329.3 448 397.9 448 481.3C448 498.2 434.2 511.1 417.3 511.1H30.72C13.75 511.1 0 498.2 0 481.3C0 397.9 63.28 329.3 144.4 320.9L191.5 415.1L214.7 368.7L177.5 316.6C175.7 314.2 175.5 311 176.9 308.3H176.9zM199.5 320L224 354.2L248.5 320H199.5zM135.3 338.3C67.45 350.6 16 409.9 16 481.3C16 489.4 22.59 495.1 30.72 495.1H214.1L135.3 338.3zM200.5 432.9L224 480L247.5 432.9L224 385.9L200.5 432.9zM432 481.3C432 409.9 380.5 350.6 312.7 338.3L233.9 495.1H417.3C425.4 495.1 432 489.4 432 481.3H432z"/></svg>
